X: 1702
T: Semâlardan Güneş Hâlâ İnmiyor
C: Mısırlı Udî İbrahim Efendi
O: Turkey
F: http://compmusic.upf.edu/node/140
N: nihavent--sarki--sofyan--semalardan_gunes--misirli_udi_ibrahim_efendi
N: makam= nihavent
N: form= sarki
N: usul= sofyan = 4/4
M: 4/4
L: 1/16
K: C _B _e  
Q: 1/4=78
%%MIDI tuningsystem comma53
d3c B2c2 d4 z4  | (3b2a2g2 (3f2e2d2 c4 z4  | \
w:  ARANAĞME  |   | 
(3_a2g2f2 (3e2d2c2 B4 z4  | 
w:   | 
c3e d3c B3d c3B  | A3c B3A G3^F G3A  | \
w:   |   | 
B3c (3d2c2e2 d4 z4  | 
w:   | 
c4 B4 A4 G4  | ^F4 D4 B3/2A/GF G4  | \
w:   |   | 
d4 B3A G4 d4  | e3d e2g2 ^f2e2 d2^c2  | 
w:  Se mâ *  lar dan   |  gü *  neş  *  hâ *  lâ   | 
d4 b4 a4 g4  | f3e e3d d4 z4  | G4 e4 d4 c4  | \
w:  in  |  *  *  mi *  yor    |  SAZ  | 
B3A BABc dedc BAG2  | 
w:  SAZ  | 
d4 B3A G4 d4  | e3d e2g2 ^f2e2 d2^c2  | \
w:  Se mâ *  lar dan   |  gü *  neş  *  hâ *  lâ   | 
d4 b4 a4 g4  | f3e e3d d4 z4  | 
w:  in  |  *  *  mi *  yor    | 
G4 e4 d4 c4  | B3A BABc d4 z4  | f3g _a3/2g/f2 edef g4  | 
w:  SAZ  |  SAZ  |  Gön *  lüm  *  *  mah *  *  *  zûn   | 
f=ef_a gf_ed cB/c/dc c4  | g4 fedc f4 edcB  | 
w:  gö *  *  *  züm *  *  *  den  *  *  *  *  yaş   |  din   | 
d3A B3/2A/G^F GABc defg  | f3g _a3/2g/f2 edef g4  | 
w:  din *  mi *  *  *  yor   SAZ  |  Gön *  lüm  *  *  mah *  *  *  zûn   | 
f=ef_a gf_ed cB/c/dc c4  | g4 fedc f4 edcB  | 
w:  gö *  *  *  züm *  *  *  den  *  *  *  *  yaş   |  din   | 
d3A B3/2A/G^F G4 z4  | g4 f3/2_1/4e/d2 bagb a4  | \
w:  din *  mi *  *  *  yor    |  SAZ  | 
a2gf g2a2 f_1/4eed d4  | 
w:   | 
g4 f_1/4edc (3gfgag g4  | g2fg a2{b}ag g2fg f/_1/4e/de2  | 
w:  A da  *  *  *  sen *  *  *  *  siz   |  yü *  *  re *  *  *  ği *  *  me   | 
_1/4e2de fggf feed e3/2d/c2  | ag2f gf_1/4ed d4 z4  | 
w:  sin   |  sin *  *  mi *  *  *  yor    | 
G4 e4 d4 c4  | B3A BABc d4 z4  | z12  | \
w:  SAZ  |   |  | 
g4a2 bag2g^f  | ^f6 f6  | 
w:  Gel  *  de  *  *  bi  |  raz   | 
a2g2a2 gfe2g2  | ^fed4 a6  | ^f4f2 gfe2ed  | \
w:  göz *  *  le *  *  ri  |  ni   |  gö *  *  *  *  re  | 
d6 z2z4  | 
w:  yim    | 
g4a2 bag2g^f  | ^f6 f6  | a2g2a2 gfe2g2  | \
w:  Gel  *  de  *  *  bi  |  raz   |  göz *  *  le *  *  ri  | 
^fed4 a6  | ^f6 gfe2ed  | 
w:  ni   |  gö *  *  *  re  | 
d6 z2z4  | z16  | f3g _a3/2g/f2 edef g4  | \
w:  yim    |  |  Mi *  mo *  *  za *  *  *  dan   | 
f=ef_a gf_ed cB/c/dc c4  | 
w:  sa *  *  *  na  *  *  *  çe *  *  *  *  lenk   | 
g4 fedc f4 edcB  | d3A B3/2A/G^F GABc defg  | 
w:  ö   |  ö *  re *  *  *  yim   SAZ  | 
f3g _a3/2g/f2 edef g4  | f=ef_a gf_ed cB/c/dc c4  | 
w:  Mi *  mo *  *  za *  *  *  dan   |  sa *  *  *  na  *  *  *  çe *  *  *  *  lenk   | 
g4 fedc f4 edcB  | d3A BAG^F G4 z4  | |


